svg/icons/oauth-sso.svg

<svg width="122" height="128" viewBox="0 0 122 128" fill="none" xmlns="http://www.w3.org/2000/svg">
<g clip-path="url(#clip0_289_48)">
<path d="M19.2502 83.0596C18.9202 83.0596 18.6002 82.8996 18.4102 82.5996C13.7202 75.2296 11.2402 66.6896 11.2402 57.9096C11.2402 32.5096 31.9002 11.8496 57.3002 11.8496C82.7002 11.8496 103.36 32.5096 103.36 57.9096C103.36 58.4596 102.91 58.9096 102.36 58.9096C101.81 58.9096 101.36 58.4596 101.36 57.9096C101.36 33.6196 81.6002 13.8496 57.3002 13.8496C33.0002 13.8496 13.2402 33.6096 13.2402 57.8996C13.2402 66.2996 15.6102 74.4696 20.1002 81.5196C20.4002 81.9896 20.2602 82.5996 19.7902 82.8996C19.6202 83.0096 19.4402 83.0596 19.2502 83.0596Z" fill="#2F3F64"/>
<path d="M11.0996 109.16C12.3996 91.7196 32.5996 77.8296 57.2996 77.8296C81.9996 77.8296 102.2 91.7096 103.5 109.16C103.13 111.36 101.22 113.03 98.9396 113.03H15.6596C13.3696 113.03 11.4696 111.36 11.0996 109.16ZM57.2896 36.5596C68.5596 36.5596 77.6896 45.7996 77.6896 57.1896C77.6896 68.5796 68.5596 77.8196 57.2896 77.8196C46.0196 77.8196 36.8896 68.5796 36.8896 57.1896C36.8896 45.7996 46.0196 36.5596 57.2896 36.5596Z" fill="#BCC5DC"/>
<path d="M98.9298 114.029H15.6598C12.9098 114.029 10.5798 112.049 10.1098 109.329C10.0998 109.249 10.0898 109.169 10.0998 109.089C11.4498 90.9991 32.1798 76.8291 57.2898 76.8291C68.2498 76.8291 78.9198 79.5991 87.3598 84.6191C87.8298 84.8991 87.9898 85.5191 87.7098 85.9891C87.4298 86.4591 86.8098 86.6191 86.3398 86.3391C78.2098 81.4991 67.8898 78.8291 57.2998 78.8291C33.2898 78.8291 13.4698 92.1191 12.1098 109.109C12.4498 110.809 13.9298 112.029 15.6598 112.029H98.9298C100.7 112.029 102.21 110.749 102.5 108.989C102.59 108.449 103.11 108.079 103.65 108.169C104.19 108.259 104.56 108.779 104.47 109.319C104.01 112.049 101.67 114.019 98.9198 114.019L98.9298 114.029Z" fill="#2F3F64"/>
<path d="M57.2896 78.8196C45.4896 78.8196 35.8896 69.1196 35.8896 57.1896C35.8896 45.2596 45.4896 35.5596 57.2896 35.5596C69.0896 35.5596 78.6897 45.2596 78.6897 57.1896C78.6897 69.1196 69.0896 78.8196 57.2896 78.8196ZM57.2896 37.5596C46.5897 37.5596 37.8896 46.3696 37.8896 57.1896C37.8896 68.0096 46.5897 76.8196 57.2896 76.8196C67.9897 76.8196 76.6897 68.0096 76.6897 57.1896C76.6897 46.3696 67.9897 37.5596 57.2896 37.5596Z" fill="#2F3F64"/>
<path d="M118.45 85.8301H75.99C74.6148 85.8301 73.5 86.9449 73.5 88.3201V123.93C73.5 125.305 74.6148 126.42 75.99 126.42H118.45C119.825 126.42 120.94 125.305 120.94 123.93V88.3201C120.94 86.9449 119.825 85.8301 118.45 85.8301Z" fill="#FEC95C"/>
<path d="M117.81 127.41H76.61C74.34 127.41 72.5 125.57 72.5 123.3V88.9303C72.5 86.6603 74.34 84.8203 76.61 84.8203H110.32C110.87 84.8203 111.32 85.2703 111.32 85.8203C111.32 86.3703 110.87 86.8203 110.32 86.8203H76.61C75.45 86.8203 74.5 87.7703 74.5 88.9303V123.3C74.5 124.46 75.45 125.41 76.61 125.41H117.81C118.98 125.41 119.94 124.45 119.94 123.28V96.0703C119.94 95.5203 120.39 95.0703 120.94 95.0703C121.49 95.0703 121.94 95.5203 121.94 96.0703V123.28C121.94 125.56 120.09 127.41 117.81 127.41Z" fill="#2F3F64"/>
<path d="M107.04 86.8302C106.49 86.8302 106.04 86.3802 106.04 85.8302V78.7902C106.04 73.2202 101.51 68.7002 95.9503 68.7002C90.3903 68.7002 85.8604 73.2302 85.8604 78.7902V85.8302C85.8604 86.3802 85.4104 86.8302 84.8604 86.8302C84.3104 86.8302 83.8604 86.3802 83.8604 85.8302V78.7902C83.8604 72.1202 89.2803 66.7002 95.9503 66.7002C102.62 66.7002 108.04 72.1202 108.04 78.7902V85.8302C108.04 86.3802 107.59 86.8302 107.04 86.8302Z" fill="#2F3F64"/>
<path d="M102.21 101.07C102.21 98.1199 99.6598 95.7699 96.6498 96.1099C94.3998 96.3599 92.5598 98.1699 92.2698 100.42C91.9598 102.87 93.4298 105.03 95.5598 105.78V110.61C95.5598 111.35 96.1598 111.95 96.8998 111.95H97.5398C98.2798 111.95 98.8798 111.35 98.8798 110.61V105.78C100.82 105.1 102.22 103.25 102.22 101.07H102.21Z" fill="#2F3F64"/>
<path d="M15.56 54.9198C23.6013 54.9198 30.12 48.4011 30.12 40.3598C30.12 32.3185 23.6013 25.7998 15.56 25.7998C7.51873 25.7998 1 32.3185 1 40.3598C1 48.4011 7.51873 54.9198 15.56 54.9198Z" fill="white"/>
<path d="M15.56 55.9198C6.98 55.9198 0 48.9398 0 40.3598C0 31.7798 6.98 24.7998 15.56 24.7998C24.14 24.7998 31.12 31.7798 31.12 40.3598C31.12 48.9398 24.14 55.9198 15.56 55.9198ZM15.56 26.8098C8.09 26.8098 2 32.8898 2 40.3698C2 47.8498 8.08 53.9298 15.56 53.9298C23.04 53.9298 29.12 47.8498 29.12 40.3698C29.12 32.8898 23.04 26.8098 15.56 26.8098Z" fill="#2F3F64"/>
<path d="M98.9604 50.8798C107.002 50.8798 113.52 44.361 113.52 36.3198C113.52 28.2785 107.002 21.7598 98.9604 21.7598C90.9191 21.7598 84.4004 28.2785 84.4004 36.3198C84.4004 44.361 90.9191 50.8798 98.9604 50.8798Z" fill="white"/>
<path d="M98.9604 51.8798C90.3804 51.8798 83.4004 44.8998 83.4004 36.3198C83.4004 27.7398 90.3804 20.7598 98.9604 20.7598C107.54 20.7598 114.52 27.7398 114.52 36.3198C114.52 44.8998 107.54 51.8798 98.9604 51.8798ZM98.9604 22.7698C91.4904 22.7698 85.4004 28.8498 85.4004 36.3298C85.4004 43.8098 91.4804 49.8898 98.9604 49.8898C106.44 49.8898 112.52 43.8098 112.52 36.3298C112.52 28.8498 106.44 22.7698 98.9604 22.7698Z" fill="#2F3F64"/>
<path d="M55.9096 30.12C63.9509 30.12 70.4696 23.6013 70.4696 15.56C70.4696 7.51873 63.9509 1 55.9096 1C47.8683 1 41.3496 7.51873 41.3496 15.56C41.3496 23.6013 47.8683 30.12 55.9096 30.12Z" fill="white"/>
<path d="M55.9096 31.11C47.3296 31.11 40.3496 24.13 40.3496 15.55C40.3496 6.97 47.3296 0 55.9096 0C64.4896 0 71.4696 6.98 71.4696 15.56C71.4696 24.14 64.4896 31.12 55.9096 31.12V31.11ZM55.9096 2C48.4396 2 42.3496 8.08 42.3496 15.56C42.3496 23.04 48.4296 29.12 55.9096 29.12C63.3896 29.12 69.4696 23.04 69.4696 15.56C69.4696 8.08 63.3896 2 55.9096 2Z" fill="#2F3F64"/>
<path d="M98.8799 45.5096L101.93 43.3096L101.79 25.8496L98.8799 28.1196V45.5096Z" fill="#BCC5DC"/>
<path d="M98.92 45.5096C87.5 43.6896 87.18 33.7596 98.85 31.5996L98.89 33.6596C90.61 35.0396 91.66 42.4696 98.89 43.5596L98.93 45.5096H98.92Z" fill="#2F3F64"/>
<path d="M101.9 33.5798C103.31 33.5798 104.54 34.2398 105.77 34.8898L103.96 36.2398H109.75L109.79 32.2998L107.98 33.6498C106.15 32.7198 104.46 31.6098 101.91 31.5898V33.5798H101.9Z" fill="#2F3F64"/>
<path d="M23.6797 41.0293C23.6797 45.7393 20.4497 49.0893 15.6897 49.0893C10.9297 49.0893 7.42969 45.3993 7.42969 40.8293C7.42969 36.2593 11.1197 32.5693 15.6897 32.5693C17.9097 32.5693 19.7897 33.3893 21.2297 34.7293L18.9797 36.8893C16.0397 34.0493 10.5697 36.1793 10.5697 40.8293C10.5697 43.7093 12.8697 46.0393 15.6897 46.0393C18.9597 46.0393 20.1797 43.6993 20.3797 42.4793H15.6897V39.6393H23.5497C23.6297 40.0593 23.6797 40.4693 23.6797 41.0193V41.0293Z" fill="#2F3F64"/>
<path d="M49.9492 21.6599C50.3992 21.9399 51.1492 22.2499 51.9392 22.2499C52.6592 22.2499 53.3292 22.0399 53.8792 21.6899L55.9692 20.3799V25.0899C55.6392 25.0899 55.3092 24.9999 55.0192 24.8199L49.9592 21.6599H49.9492Z" fill="#2F3F64"/>
<path d="M54.6292 7.15957L45.9492 16.9496C45.2792 17.7096 45.4492 18.8496 46.3192 19.3896C46.3192 19.3896 49.5292 21.3996 49.9392 21.6496C50.3892 21.9296 51.1392 22.2396 51.9292 22.2396C52.6492 22.2396 53.3192 22.0296 53.8692 21.6796L55.9592 20.3696L50.9092 17.2096L55.9592 11.5096V6.55957C55.4692 6.55957 54.9792 6.75957 54.6292 7.14957V7.15957Z" fill="#BCC5DC"/>
<path d="M50.9092 17.2195L50.9692 17.2595L55.9592 20.3795V11.5195L50.9092 17.2195Z" fill="white"/>
<path d="M65.599 19.3995C66.469 18.8595 66.639 17.7095 65.969 16.9595L60.269 10.5295C59.809 10.3195 59.299 10.1895 58.749 10.1895C57.679 10.1895 56.719 10.6495 56.089 11.3795L55.959 11.5195L61.009 17.2195L55.959 20.3795V25.0895C56.289 25.0895 56.619 24.9995 56.909 24.8195L65.589 19.3895L65.599 19.3995Z" fill="#2F3F64"/>
<path d="M55.9592 6.56934V11.5193L56.0892 11.3793C56.7292 10.6493 57.6792 10.1893 58.7492 10.1893C59.2992 10.1893 59.8092 10.3093 60.2692 10.5293L57.2792 7.15934C56.9292 6.76934 56.4392 6.56934 55.9492 6.56934H55.9592Z" fill="#BCC5DC"/>
<path d="M61.009 17.2195L55.959 11.5195V20.3795L61.009 17.2195Z" fill="#BCC5DC"/>
</g>
<defs>
<clipPath id="clip0_289_48">
<rect width="121.94" height="127.41" fill="white"/>
</clipPath>
</defs>
</svg>

<?xml version="1.0" encoding="UTF-8"?>
<svg id="Layer_2" data-name="Layer 2" xmlns="http://www.w3.org/2000/svg" viewBox="0 0 121.94 127.41">
  <defs>
    <style>
      .cls-1 {
        fill: #fec95c;
      }

      .cls-2 {
        fill: #fff;
      }

      .cls-3 {
        fill: #bcc5dc;
      }

      .cls-4 {
        fill: #2f3f64;
      }
    </style>
  </defs>
  <g id="Layer_1-2" data-name="Layer 1">
    <g>
      <g>
        <path class="cls-4" d="M19.25,83.06c-.33,0-.65-.16-.84-.46-4.69-7.37-7.17-15.91-7.17-24.69,0-25.4,20.66-46.06,46.06-46.06s46.06,20.66,46.06,46.06c0,.55-.45,1-1,1s-1-.45-1-1c0-24.29-19.76-44.06-44.06-44.06S13.24,33.61,13.24,57.9c0,8.4,2.37,16.57,6.86,23.62.3.47.16,1.08-.31,1.38-.17.11-.35.16-.54.16Z"/>
        <g>
          <path class="cls-3" d="M11.1,109.16c1.3-17.44,21.5-31.33,46.2-31.33s44.9,13.88,46.2,31.33c-.37,2.2-2.28,3.87-4.56,3.87H15.66c-2.29,0-4.19-1.67-4.56-3.87ZM57.29,36.56c11.27,0,20.4,9.24,20.4,20.63s-9.13,20.63-20.4,20.63-20.4-9.24-20.4-20.63,9.13-20.63,20.4-20.63Z"/>
          <path class="cls-4" d="M98.93,114.03H15.66c-2.75,0-5.08-1.98-5.55-4.7-.01-.08-.02-.16-.01-.24,1.35-18.09,22.08-32.26,47.19-32.26,10.96,0,21.63,2.77,30.07,7.79.47.28.63.9.35,1.37-.28.47-.9.63-1.37.35-8.13-4.84-18.45-7.51-29.04-7.51-24.01,0-43.83,13.29-45.19,30.28.34,1.7,1.82,2.92,3.55,2.92h83.27c1.77,0,3.28-1.28,3.57-3.04.09-.54.61-.91,1.15-.82.54.09.91.61.82,1.15-.46,2.73-2.8,4.7-5.55,4.7Z"/>
          <path class="cls-4" d="M57.29,78.82c-11.8,0-21.4-9.7-21.4-21.63s9.6-21.63,21.4-21.63,21.4,9.7,21.4,21.63-9.6,21.63-21.4,21.63ZM57.29,37.56c-10.7,0-19.4,8.81-19.4,19.63s8.7,19.63,19.4,19.63,19.4-8.81,19.4-19.63-8.7-19.63-19.4-19.63Z"/>
        </g>
        <g>
          <rect class="cls-1" x="73.5" y="85.83" width="47.44" height="40.59" rx="2.49" ry="2.49"/>
          <path class="cls-4" d="M117.81,127.41h-41.2c-2.27,0-4.11-1.84-4.11-4.11v-34.37c0-2.27,1.84-4.11,4.11-4.11h33.71c.55,0,1,.45,1,1s-.45,1-1,1h-33.71c-1.16,0-2.11.95-2.11,2.11v34.37c0,1.16.95,2.11,2.11,2.11h41.2c1.17,0,2.13-.96,2.13-2.13v-27.21c0-.55.45-1,1-1s1,.45,1,1v27.21c0,2.28-1.85,4.13-4.13,4.13Z"/>
          <path class="cls-4" d="M107.04,86.83c-.55,0-1-.45-1-1v-7.04c0-5.57-4.53-10.09-10.09-10.09s-10.09,4.53-10.09,10.09v7.04c0,.55-.45,1-1,1s-1-.45-1-1v-7.04c0-6.67,5.42-12.09,12.09-12.09s12.09,5.42,12.09,12.09v7.04c0,.55-.45,1-1,1Z"/>
          <path class="cls-4" d="M102.21,101.07c0-2.95-2.55-5.3-5.56-4.96-2.25.25-4.09,2.06-4.38,4.31-.31,2.45,1.16,4.61,3.29,5.36v4.83c0,.74.6,1.34,1.34,1.34h.64c.74,0,1.34-.6,1.34-1.34v-4.83c1.94-.68,3.34-2.53,3.34-4.71Z"/>
        </g>
        <g>
          <circle class="cls-2" cx="15.56" cy="40.36" r="14.56"/>
          <path class="cls-4" d="M15.56,55.92c-8.58,0-15.56-6.98-15.56-15.56s6.98-15.56,15.56-15.56,15.56,6.98,15.56,15.56-6.98,15.56-15.56,15.56ZM15.56,26.81c-7.47,0-13.56,6.08-13.56,13.56s6.08,13.56,13.56,13.56,13.56-6.08,13.56-13.56-6.08-13.56-13.56-13.56Z"/>
        </g>
        <g>
          <circle class="cls-2" cx="98.96" cy="36.32" r="14.56"/>
          <path class="cls-4" d="M98.96,51.88c-8.58,0-15.56-6.98-15.56-15.56s6.98-15.56,15.56-15.56,15.56,6.98,15.56,15.56-6.98,15.56-15.56,15.56ZM98.96,22.77c-7.47,0-13.56,6.08-13.56,13.56s6.08,13.56,13.56,13.56,13.56-6.08,13.56-13.56-6.08-13.56-13.56-13.56Z"/>
        </g>
        <g>
          <circle class="cls-2" cx="55.91" cy="15.56" r="14.56"/>
          <path class="cls-4" d="M55.91,31.11c-8.58,0-15.56-6.98-15.56-15.56S47.33,0,55.91,0s15.56,6.98,15.56,15.56-6.98,15.56-15.56,15.56ZM55.91,2c-7.47,0-13.56,6.08-13.56,13.56s6.08,13.56,13.56,13.56,13.56-6.08,13.56-13.56-6.08-13.56-13.56-13.56Z"/>
        </g>
      </g>
      <g>
        <g>
          <path id="path25468" class="cls-3" d="M98.88,45.51l3.05-2.2-.14-17.46-2.91,2.27v17.39h0Z"/>
          <path id="path25470" class="cls-4" d="M98.92,45.51c-11.42-1.82-11.74-11.75-.07-13.91l.04,2.06c-8.28,1.38-7.23,8.81,0,9.9l.04,1.95Z"/>
          <path id="path25472" class="cls-4" d="M101.9,33.58c1.41,0,2.64.66,3.87,1.31l-1.81,1.35h5.79l.04-3.94-1.81,1.35c-1.83-.93-3.52-2.04-6.07-2.06v1.99h0Z"/>
        </g>
        <path class="cls-4" d="M23.68,41.03c0,4.71-3.23,8.06-7.99,8.06s-8.26-3.69-8.26-8.26,3.69-8.26,8.26-8.26c2.22,0,4.1.82,5.54,2.16l-2.25,2.16c-2.94-2.84-8.41-.71-8.41,3.94,0,2.88,2.3,5.21,5.12,5.21,3.27,0,4.49-2.34,4.69-3.56h-4.69v-2.84h7.86c.08.42.13.83.13,1.38h0Z"/>
        <g>
          <path class="cls-4" d="M49.95,21.66c.45.28,1.2.59,1.99.59.72,0,1.39-.21,1.94-.56,0,0,0,0,0,0l2.09-1.31v4.71c-.33,0-.66-.09-.95-.27l-5.06-3.16h0Z"/>
          <path class="cls-3" d="M54.63,7.16l-8.68,9.79c-.67.76-.5,1.9.37,2.44,0,0,3.21,2.01,3.62,2.26.45.28,1.2.59,1.99.59.72,0,1.39-.21,1.94-.56,0,0,0,0,0,0l2.09-1.31-5.05-3.16,5.05-5.7v-4.95h0c-.49,0-.98.2-1.33.59h0Z"/>
          <polygon class="cls-2" points="50.91 17.22 50.97 17.26 55.96 20.38 55.96 20.38 55.96 20.38 55.96 11.52 55.96 11.52 50.91 17.22"/>
          <path class="cls-4" d="M65.6,19.4c.87-.54,1.04-1.69.37-2.44l-5.7-6.43c-.46-.21-.97-.34-1.52-.34-1.07,0-2.03.46-2.66,1.19l-.13.14h0l5.05,5.7h0l-5.05,3.16v4.71c.33,0,.66-.09.95-.27l8.68-5.43h0s0,0,0,0Z"/>
          <path class="cls-3" d="M55.96,6.57v4.95l.13-.14c.64-.73,1.59-1.19,2.66-1.19.55,0,1.06.12,1.52.34l-2.99-3.37c-.35-.39-.84-.59-1.33-.59h0Z"/>
          <polygon class="cls-3" points="61.01 17.22 61.01 17.22 61.01 17.22 55.96 11.52 55.96 20.38 61.01 17.22"/>
        </g>
      </g>
    </g>
  </g>
</svg>
